!!!COM: Bach, Johann Sebastian
!!!CDT: 1685/02/21/-1750/07/28/
!!!OPR: Partita for solo violin, No. 1 in D Major
!!!OTL: Movement 2: Double
!!!ODT: 1720///
!!!SCT: BWV 1002
**kern
*Ivioln
*>[A,A,B,B]
*>norep[A,B]
*>A
*clefG2
*k[f#c#]
*met(C)
*M4/4
*MM64
16ff#\
=1
(16b\LL
16dd\)
(16ff#\
16bb\JJ)
(16gg\LL
16ee\)
(16cc#\
16ee\JJ)
(16a#\LL
16gg\)
(16ff#\
16ee\JJ)
(16dd/LL
16b/)
(16f#/
16a/JJ)
=2
(16g\LL
16ff#\)
(16ee\
16dd\JJ)
(16cc#\LL
16ee\)
(16gg\
16b\JJ)
(16a#/LL
16cc#/)
(16f#/
16e/JJ)
(16d/LL
16b/)
(16c#/
16cc#/JJ)
=3
(16dd/LL
16f#/)
(16B/
16c#/JJ)
(16d/LL
16e/)
(16f#/
16g/JJ)
(16a/LL
16d/)
(16f#/
16a/JJ)
(16dd\LL
16ee\)
(16ff#\
16a\JJ)
=4
(16b/LL
16g/)
(16b/
16dd/JJ)
(16gg/LL
16b/)
(16g/
16e/JJ)
(16c#/LL
16e/
16a/)
16gg/JJ
16ff#/LL
16d/
16g/
16ee/JJ
=5
(16cc#\LL
16a\)
(16cc#\
16ee\JJ)
(16aa\LL
16cc\)
(16a\
16f#\JJ)
(16d#\LL
16f#\)
(16b\
16ff#\JJ)
(16aa\LL
16ccc\)
(16bb\
16aa\JJ)
=6
(16gg\LL
16bb\)
(16gg\
16ee\JJ)
(16b\LL
16dd\)
(16cc#\
16b\JJ)
(16a#\LL
16gg\)
(16ff#\
16e\JJ)
(16d/LL
16f#/)
(16b/
16dd/JJ)
=7
(16g#/LL
16ff#/)
(16ee/
16d/JJ)
(16c#/LL
16e/)
(16g/
16B/JJ)
(16A#/LL
16f#/)
(16cc#/
16ee/JJ)
(16dd/LL
16f#/)
(16B/
16dd/JJ)
=8
(16cc#\LL
16ff#\)
(16cc#\
16a#\JJ)
(16f#/LL
16a#/)
(16cc#/
16e/JJ)
(16d/LL
16ff#/
(16dd/)
16b/JJ)
(16g#/LL
16b/)
(16ee/
16a#/JJ)
=9
(16b\LL
16ee\)
(16ff#\
16cc#\JJ)
(16dd\LL
16b\)
(16gg#\
16b\JJ)
(16e#\LL
16cc#\)
(16bb\
16gg#\JJ)
(16aa\LL
(16cc#\)
16f#\
16aa\JJ)
=10
(16gg#\LL
16cc#\)
(16ee#\
16gg#\JJ)
(16ccc#\LL
16ee\)
(16a\
16ee\JJ)
(16B/LL
16f#/)
(16ee/
16cc#/JJ)
(16dd\LL
16ff#\)
(16bb\
16ccc#\JJ)
=11
(16ddd\LL
16ee#\)
(16g#\
16ee#\JJ)
16c#\LL
(16ddd\
16ee#\
16ccc#\JJ)
(16bb\LL
16aa\)
(16gg#\
(16ff#\JJ)
16cc#\LL
16ff#\)
(16gg#\
16ee#\JJ)
=12
(16ff#\LL
16cc#\)
(16a#\
16ee\JJ)
(16dd/LL
16e#/)
(16g#/
16b/JJ)
(16a#/LL
16f#/)
(16a#/
16cc#/JJ)
8.ff#\
=:|!|:
*>B
16cc#\
=13
(16cc#\LL
16gg\)
(16ee\
16cc#\JJ)
(16a#/LL
16f#/)
(16cc#/
16e/JJ)
(16d/LL
(16f#/)
16b/
(16d/JJ)
16c#/LL
16B/)
(16A#/
16e/JJ)
=14
(16d/LL
16B/)
(16d/
16f#/JJ)
(16b/LL
16g/)
(16f#/
16e/JJ)
(16d#/LL
16f#/)
(16a/
16cc/JJ)
(16b\LL
16a\)
(16ff#\
16a\JJ)
=15
(16g\LL
16b\)
(16ee\
(16gg\JJ)
16ff#\LL
16aa\)
(16dd#\
16ee\JJ)
(16b\LL
16ee\)
(16dd#\
16ff#\JJ)
(16bb\LL
16ff#\)
(16dd#\
16a\JJ)
=16
(16g#\LL
16b\)
(16ee\
16gg#\JJ)
(16bb\LL
16ddd\)
(16ccc\
16bb\JJ)
(16ccc\LL
16aa\)
(16ee\
(16cc\JJ)
16a\LL
16gg\)
(16ff#\
16ee\JJ)
=17
16dd#\LL
16ff#\
16aa\
16ccc\JJ
(16bb\LL
16aa\)
(16dd#\
16aa\JJ)
(16gg\LL
16bb\)
(16gg\
(16ee\JJ)
16b\LL
16gg\)
(16ddd\
16ff\JJ)
=18
(16ee\LL
16b\)
(16cc\
16ee\JJ)
(16a#/LL
16b/)
(16d#/
16e/JJ)
(16G/LL
16e/)
(16b/
16gg/JJ)
(16ff#\LL
(16ee\)
16b\
16dd#\JJ)
=19
(16e/LL
16g/)
(16b/
16ee/JJ)
(16b/LL
16g/)
(16e/
16g/JJ)
(16c#/LL
16a/)
(16ee/
16g/JJ)
(16f#\LL
16aa\)
(16e\
16gg\JJ)
=20
(16d\LL
16gg\)
(16ff#\
16ee\JJ)
(16dd\LL
16ff#\)
(16aa#\
16bb\JJ)
(16ee\LL
16cc#\)
(16a#\
16cc#\JJ)
(16d/LL
(16ff#/)
16c#/
16ee/JJ)
=21
(16B\LL
16ee\)
(16dd\
16cc#\JJ)
(16b\LL
16dd\)
(16ff#\
16gg\JJ)
(16cc/LL
16a/)
(16f#/
16a/JJ)
(16d/LL
16f#/)
(16a/
16cc/JJ)
=22
(16ff#/LL
16b/)
(16d#/
16f#/JJ)
(16b\LL
16dd#\)
(16ff#\
16aa\JJ)
(16gg\LL
16ee\)
(16b\
16dd\JJ)
(16cc\LL
16ee\)
(16gg\
16b\JJ)
=23
(16a#\LL
16gg\)
(16ff#\
16e\JJ)
(16d\LL
16bb\)
(16aa#\
16bb\JJ)
(16ee#\LL
16ff#\)
(16a#\
16b\JJ)
(16f#/LL
16dd/)
(16cc#/
16a#/JJ)
=24
16b/LL
16B/
16d/
16f#/JJ
(16b\LL
16dd\)
(16ff#\
16aa#\JJ)
(16bb\LL
16ff#\)
(16dd\
16b\JJ)
8.B/
==:|!
*-
!!!ENC: Craig Sapp
!!!END: 2004/05/06/
